src/svg/no-drop.svg

<?xml version="1.0" encoding="UTF-8" standalone="no"?>
<svg
   xmlns:dc="http://purl.org/dc/elements/1.1/"
   xmlns:cc="http://creativecommons.org/ns#"
   xmlns:rdf="http://www.w3.org/1999/02/22-rdf-syntax-ns#"
   xmlns:svg="http://www.w3.org/2000/svg"
   xmlns="http://www.w3.org/2000/svg"
   xmlns:sodipodi="http://sodipodi.sourceforge.net/DTD/sodipodi-0.dtd"
   xmlns:inkscape="http://www.inkscape.org/namespaces/inkscape"
   width="32"
   height="32"
   version="1.1"
   viewBox="0 0 32 32"
   id="svg24"
   sodipodi:docname="no-drop.svg"
   inkscape:version="0.92.4 5da689c313, 2019-01-14">
  <metadata
     id="metadata28">
    <rdf:RDF>
      <cc:Work
         rdf:about="">
        <dc:format>image/svg+xml</dc:format>
        <dc:type
           rdf:resource="http://purl.org/dc/dcmitype/StillImage" />
      </cc:Work>
    </rdf:RDF>
  </metadata>
  <sodipodi:namedview
     pagecolor="#ffffff"
     bordercolor="#666666"
     borderopacity="1"
     objecttolerance="10"
     gridtolerance="10"
     guidetolerance="10"
     inkscape:pageopacity="0"
     inkscape:pageshadow="2"
     inkscape:window-width="1366"
     inkscape:window-height="696"
     id="namedview26"
     showgrid="false"
     inkscape:zoom="7.375"
     inkscape:cx="-13.288136"
     inkscape:cy="16"
     inkscape:window-x="0"
     inkscape:window-y="36"
     inkscape:window-maximized="1"
     inkscape:current-layer="svg24" />
  <defs
     id="defs8">
    <filter
       id="a"
       x="-.12"
       y="-.12"
       width="1.24"
       height="1.24"
       color-interpolation-filters="sRGB">
      <feGaussianBlur
         stdDeviation="0.64999976"
         id="feGaussianBlur2" />
    </filter>
    <filter
       id="b"
       x="-.16181"
       y="-.095361"
       width="1.3236"
       height="1.1907"
       color-interpolation-filters="sRGB">
      <feGaussianBlur
         stdDeviation="0.62797713"
         id="feGaussianBlur5" />
    </filter>
    <filter
       inkscape:collect="always"
       style="color-interpolation-filters:sRGB"
       id="filter4666"
       x="-0.16854379"
       width="1.3370876"
       y="-0.093166336"
       height="1.1863327">
      <feGaussianBlur
         inkscape:collect="always"
         stdDeviation="0.75537022"
         id="feGaussianBlur4668" />
    </filter>
  </defs>
  <circle
     cx="21.94"
     cy="23.9"
     r="6.5"
     filter="url(#a)"
     opacity=".25"
     id="circle10" />
  <circle
     cx="21.5"
     cy="23.5"
     r="6.5"
     fill="#fff"
     id="circle12" />
  <path
     d="m18.268 19.019c-2.261 1.6306-2.9499 4.7657-1.526 7.2319 1.5188 2.6306 4.8825 3.5319 7.5131 2.0131 2.6306-1.5188 3.5319-4.8825 2.0131-7.5131-1.5188-2.6306-4.8825-3.5319-7.5131-2.0131-0.16441 0.0949-0.33642 0.17252-0.48714 0.28125zm1.4871 1.4508c1.3759-0.79437 3.0505-0.54798 4.1458 0.49319l-5.7915 3.3438c-0.35403-1.4692 0.26987-3.0426 1.6458-3.8369zm-0.64577 5.569 5.7915-3.3438c0.35403 1.4692-0.26987 3.0426-1.6458 3.8369-1.3759 0.79438-3.0505 0.54798-4.1458-0.49319z"
     fill="#ed1515"
     id="path22" />
  <g
     id="g4682"
     transform="translate(-31,1.9999995)">
    <path
       style="color:#000000;font-style:normal;font-variant:normal;font-weight:normal;font-stretch:normal;font-size:medium;line-height:normal;font-family:sans-serif;font-variant-ligatures:normal;font-variant-position:normal;font-variant-caps:normal;font-variant-numeric:normal;font-variant-alternates:normal;font-feature-settings:normal;text-indent:0;text-align:start;text-decoration:none;text-decoration-line:none;text-decoration-style:solid;text-decoration-color:#000000;letter-spacing:normal;word-spacing:normal;text-transform:none;writing-mode:lr-tb;direction:ltr;text-orientation:mixed;dominant-baseline:auto;baseline-shift:baseline;text-anchor:start;white-space:normal;shape-padding:0;clip-rule:nonzero;display:inline;overflow:visible;visibility:visible;opacity:0.35;isolation:auto;mix-blend-mode:normal;color-interpolation:sRGB;color-interpolation-filters:linearRGB;solid-color:#000000;solid-opacity:1;vector-effect:none;fill:#000000;fill-opacity:1;fill-rule:nonzero;stroke:none;stroke-width:2;stroke-linecap:round;stroke-linejoin:round;stroke-miterlimit:4;stroke-dasharray:none;stroke-dashoffset:0;stroke-opacity:1;paint-order:stroke fill markers;filter:url(#filter4666);color-rendering:auto;image-rendering:auto;shape-rendering:auto;text-rendering:auto;enable-background:accumulate"
       d="m 36.378906,3.070312 a 1.0001,1.0001 0 0 0 -1.033203,1 v 13 a 1.0001,1.0001 0 0 0 0.449219,0.833984 l 6.757812,4.458985 a 1.0001,1.0001 0 0 0 1.519531,-0.587891 l 1.998047,-7.798828 A 1.0001,1.0001 0 0 0 45.84375,13.05664 L 37.085937,3.398437 A 1.0001,1.0001 0 0 0 36.378906,3.070312 Z M 37.345703,6.6621089 44,14 42.482422,19.919921 37.345703,16.53125 Z"
       id="path4556"
       inkscape:connector-curvature="0" />
    <path
       inkscape:connector-curvature="0"
       id="path4552"
       d="M 36.033203,2 A 1.0001,1.0001 0 0 0 35,3 v 13 a 1.0001,1.0001 0 0 0 0.449219,0.833984 l 6.757812,4.458985 a 1.0001,1.0001 0 0 0 1.519531,-0.587891 L 45.724609,12.90625 A 1.0001,1.0001 0 0 0 45.498047,11.986328 L 36.740234,2.328125 A 1.0001,1.0001 0 0 0 36.033203,2 Z M 37,5.5917969 43.654297,12.929688 42.136719,18.849609 37,15.460938 Z"
       style="color:#000000;font-style:normal;font-variant:normal;font-weight:normal;font-stretch:normal;font-size:medium;line-height:normal;font-family:sans-serif;font-variant-ligatures:normal;font-variant-position:normal;font-variant-caps:normal;font-variant-numeric:normal;font-variant-alternates:normal;font-feature-settings:normal;text-indent:0;text-align:start;text-decoration:none;text-decoration-line:none;text-decoration-style:solid;text-decoration-color:#000000;letter-spacing:normal;word-spacing:normal;text-transform:none;writing-mode:lr-tb;direction:ltr;text-orientation:mixed;dominant-baseline:auto;baseline-shift:baseline;text-anchor:start;white-space:normal;shape-padding:0;clip-rule:nonzero;display:inline;overflow:visible;visibility:visible;opacity:1;isolation:auto;mix-blend-mode:normal;color-interpolation:sRGB;color-interpolation-filters:linearRGB;solid-color:#000000;solid-opacity:1;vector-effect:none;fill:#ffffff;fill-opacity:1;fill-rule:nonzero;stroke:none;stroke-width:2;stroke-linecap:round;stroke-linejoin:round;stroke-miterlimit:4;stroke-dasharray:none;stroke-dashoffset:0;stroke-opacity:1;paint-order:stroke fill markers;color-rendering:auto;image-rendering:auto;shape-rendering:auto;text-rendering:auto;enable-background:accumulate" />
    <path
       sodipodi:nodetypes="ccccc"
       inkscape:connector-curvature="0"
       id="rect4546"
       d="m 36,3 v 13 l 6.757419,4.457263 1.999033,-7.799883 z"
       style="opacity:1;fill:#333333;fill-opacity:1;stroke:none;stroke-width:2.23740506;stroke-linecap:round;stroke-linejoin:round;stroke-miterlimit:4;stroke-dasharray:none;stroke-opacity:1;paint-order:stroke fill markers" />
  </g>
</svg>

<svg xmlns="http://www.w3.org/2000/svg" width="32" height="32" viewBox="0 0 32 32">
  <defs>
    <filter id="a" x="-.12" y="-.12" width="1.24" height="1.24" color-interpolation-filters="sRGB">
      <feGaussianBlur stdDeviation=".65"/>
    </filter>
    <filter style="color-interpolation-filters:sRGB" id="b" x="-.169" width="1.337" y="-.093" height="1.186">
      <feGaussianBlur stdDeviation=".755"/>
    </filter>
  </defs>
  <circle cx="21.94" cy="23.9" r="6.5" filter="url(#a)" opacity=".25"/>
  <circle cx="21.5" cy="23.5" r="6.5" fill="#d3c6aa"/>
  <path d="M18.268 19.019c-2.261 1.63-2.95 4.766-1.526 7.232a5.5 5.5 0 1 0 2.013-7.513c-.164.095-.336.172-.487.281m1.487 1.45a3.48 3.48 0 0 1 4.146.494l-5.792 3.344a3.48 3.48 0 0 1 1.646-3.837zm-.646 5.57 5.792-3.344a3.48 3.48 0 0 1-1.646 3.837 3.48 3.48 0 0 1-4.146-.493" fill="#e67e80"/>
  <path style="color:#000;font-style:normal;font-variant:normal;font-weight:400;font-stretch:normal;font-size:medium;line-height:normal;font-family:sans-serif;font-variant-ligatures:normal;font-variant-position:normal;font-variant-caps:normal;font-variant-numeric:normal;font-variant-alternates:normal;font-feature-settings:normal;text-indent:0;text-align:start;text-decoration:none;text-decoration-line:none;text-decoration-style:solid;text-decoration-color:#000;letter-spacing:normal;word-spacing:normal;text-transform:none;writing-mode:lr-tb;direction:ltr;text-orientation:mixed;dominant-baseline:auto;baseline-shift:baseline;text-anchor:start;white-space:normal;shape-padding:0;clip-rule:nonzero;display:inline;overflow:visible;visibility:visible;opacity:.35;isolation:auto;mix-blend-mode:normal;color-interpolation:sRGB;color-interpolation-filters:linearRGB;solid-color:#000;solid-opacity:1;vector-effect:none;fill:#000;fill-opacity:1;fill-rule:nonzero;stroke:none;stroke-width:2;stroke-linecap:round;stroke-linejoin:round;stroke-miterlimit:4;stroke-dasharray:none;stroke-dashoffset:0;stroke-opacity:1;paint-order:stroke fill markers;filter:url(#b);color-rendering:auto;image-rendering:auto;shape-rendering:auto;text-rendering:auto;enable-background:accumulate" d="M36.379 3.07a1 1 0 0 0-1.033 1v13a1 1 0 0 0 .449.834l6.758 4.46a1 1 0 0 0 1.52-.589l1.997-7.798a1 1 0 0 0-.226-.92l-8.758-9.659a1 1 0 0 0-.707-.328m.967 3.592L44 14l-1.518 5.92-5.136-3.389Z" transform="translate(-31 2)"/>
  <path d="M36.033 2A1 1 0 0 0 35 3v13a1 1 0 0 0 .45.834l6.757 4.459a1 1 0 0 0 1.52-.588l1.998-7.799a1 1 0 0 0-.227-.92L36.74 2.328A1 1 0 0 0 36.033 2M37 5.592l6.654 7.338-1.517 5.92L37 15.46Z" style="color:#000;font-style:normal;font-variant:normal;font-weight:400;font-stretch:normal;font-size:medium;line-height:normal;font-family:sans-serif;font-variant-ligatures:normal;font-variant-position:normal;font-variant-caps:normal;font-variant-numeric:normal;font-variant-alternates:normal;font-feature-settings:normal;text-indent:0;text-align:start;text-decoration:none;text-decoration-line:none;text-decoration-style:solid;text-decoration-color:#000;letter-spacing:normal;word-spacing:normal;text-transform:none;writing-mode:lr-tb;direction:ltr;text-orientation:mixed;dominant-baseline:auto;baseline-shift:baseline;text-anchor:start;white-space:normal;shape-padding:0;clip-rule:nonzero;display:inline;overflow:visible;visibility:visible;opacity:1;isolation:auto;mix-blend-mode:normal;color-interpolation:sRGB;color-interpolation-filters:linearRGB;solid-color:#000;solid-opacity:1;vector-effect:none;fill:#d3c6aa;fill-opacity:1;fill-rule:nonzero;stroke:none;stroke-width:2;stroke-linecap:round;stroke-linejoin:round;stroke-miterlimit:4;stroke-dasharray:none;stroke-dashoffset:0;stroke-opacity:1;paint-order:stroke fill markers;color-rendering:auto;image-rendering:auto;shape-rendering:auto;text-rendering:auto;enable-background:accumulate" transform="translate(-31 2)"/>
  <path d="M36 3v13l6.757 4.457 2-7.8z" style="opacity:1;fill:#272e33;fill-opacity:1;stroke:none;stroke-width:2.23740506;stroke-linecap:round;stroke-linejoin:round;stroke-miterlimit:4;stroke-dasharray:none;stroke-opacity:1;paint-order:stroke fill markers" transform="translate(-31 2)"/>
</svg>
